X:1
T:Title
%%score { ( 1 3 ) | ( 2 4 ) }
L:1/8
M:3/4
K:C
V:1 treble nm="Grand Piano"
V:3 treble 
V:2 bass 
V:4 bass 
V:1
 z2 z[Q:1/4=100] C D_E | z C CE GF | z C CD [A,^C]C | [D,F,D]3 C [G,B,]B, |[M:3/8] [C,E,C]3 | %5
 CD_E |[M:3/4] z C CE GF | z C CE E_E | [D,B,D]3 D EC |[M:3/8] B,3 | GGG |[M:3/4] d3 B AG | %12
 [CEc]3 E EE | A3 A [^FB][Fc] |[M:3/8] B3 | GGG |[M:3/4] [Ge]3 [Gd] [Gc][EG] | A3 A ^GG | %18
 GG [FG]2 [Fd]2 |[M:3/8] [Ec]3 |] %20
V:2
 z2 z E, F,^F, | [C,,C,]3 C B,A, | [C,,C,]3 ^G, z E, | z A, A,A, z D, |[M:3/8] z G,G, | E,F,^F, | %6
[M:3/4] [C,,C,]3 C B,A, | [C,,C,]3 G, G,A, | z G, G,B, C^F, |[M:3/8] [G,,D,G,]3 | G,G,G, | %11
[M:3/4][K:treble] [G,B,F]3 [G,DF] [G,CF][G,B,F] | C,3 E, E,E, | [A,CE]3 [A,CE] [D,D][D,D] | %14
[M:3/8][K:treble] [G,DF]3 | [G,B,F][G,B,F][G,B,F] |[M:3/4][K:bass] [C,C]3 [D,B,] [E,C][C,C] | %17
 [F,CF]3 [F,CF] [^F,C_E][F,CE] | [G,CE][E,C] [D,B,]2 [G,,B,]2 |[M:3/8] [C,C]3 |] %20
V:3
 x6 | [G,E]4 z2 | [G,E]4 z2 | x6 |[M:3/8] x3 | x3 |[M:3/4] [G,E]4 z2 | [G,E]4 z2 | x6 |[M:3/8] x3 | %10
 x3 |[M:3/4] x6 | x6 | x6 |[M:3/8] x3 | x3 |[M:3/4] x6 | x6 | x6 |[M:3/8] x3 |] %20
V:4
 x6 | x6 | z2 z2 A,,2 | D,,4 [G,,,G,,]2 |[M:3/8] C,,3 | x3 |[M:3/4] x6 | x6 | D,,4 z2 |[M:3/8] x3 | %10
 x3 |[M:3/4][K:treble] x6 | x6 | x6 |[M:3/8][K:treble] x3 | x3 |[M:3/4][K:bass] x6 | x6 | x6 | %19
[M:3/8] x3 |] %20

